Libraries/Atlas.Resources/Icons/svg/screenshot.svg

<?xml version="1.0" encoding="iso-8859-1"?>
<!-- Generator: Adobe Illustrator 19.0.0, SVG Export Plug-In . SVG Version: 6.00 Build 0)  -->
<svg version="1.1" id="Capa_1" xmlns="http://www.w3.org/2000/svg" xmlns:xlink="http://www.w3.org/1999/xlink" x="0px" y="0px"
	 viewBox="0 0 512 512" style="enable-background:new 0 0 512 512;" xml:space="preserve">
<g>
	<g>
		<g>
			<path d="M60,150.5c0,11.046,8.954,20,20,20s20-8.954,20-20v-50h49c11.046,0,20-8.954,20-20s-8.954-20-20-20h-49v-40
				c0-11.046-8.954-20-20-20s-20,8.954-20,20v40H20c-11.046,0-20,8.954-20,20s8.954,20,20,20h40V150.5z"/>
			<path d="M432,210.5c-11.046,0-20,8.954-20,20v52c0,11.046,8.954,20,20,20c11.046,0,20-8.954,20-20v-52
				C452,219.454,443.046,210.5,432,210.5z"/>
			<path d="M362,100.5h10c22.056,0,40,17.944,40,40v10c0,11.046,8.954,20,20,20c11.046,0,20-8.954,20-20v-10
				c0-44.112-35.888-80-80-80h-10c-11.046,0-20,8.954-20,20S350.954,100.5,362,100.5z"/>
			<path d="M80,210.5c-11.046,0-20,8.954-20,20v52c0,11.046,8.954,20,20,20s20-8.954,20-20v-52C100,219.454,91.046,210.5,80,210.5z"
				/>
			<path d="M150,411.5h-10c-22.056,0-40-17.944-40-40v-9c0-11.046-8.954-20-20-20s-20,8.954-20,20v9c0,44.112,35.888,80,80,80h10
				c11.046,0,20-8.954,20-20C170,420.454,161.046,411.5,150,411.5z"/>
			<path d="M492,411.5h-40v-49c0-11.046-8.954-20-20-20c-11.046,0-20,8.954-20,20v49h-50c-11.046,0-20,8.954-20,20
				c0,11.046,8.954,20,20,20h50v40c0,11.046,8.954,20,20,20c11.046,0,20-8.954,20-20v-40h40c11.046,0,20-8.954,20-20
				C512,420.454,503.046,411.5,492,411.5z"/>
			<path d="M282,60.5h-52c-11.046,0-20,8.954-20,20s8.954,20,20,20h52c11.046,0,20-8.954,20-20S293.046,60.5,282,60.5z"/>
			<path d="M282,411.5h-52c-11.046,0-20,8.954-20,20c0,11.046,8.954,20,20,20h52c11.046,0,20-8.954,20-20
				C302,420.454,293.046,411.5,282,411.5z"/>
		</g>
	</g>
</g>
<g>
</g>
<g>
</g>
<g>
</g>
<g>
</g>
<g>
</g>
<g>
</g>
<g>
</g>
<g>
</g>
<g>
</g>
<g>
</g>
<g>
</g>
<g>
</g>
<g>
</g>
<g>
</g>
<g>
</g>
</svg>

<?xml version="1.0" encoding="UTF-8" standalone="no" ?>
<!DOCTYPE svg PUBLIC "-//W3C//DTD SVG 1.1//EN" "http://www.w3.org/Graphics/SVG/1.1/DTD/svg11.dtd">
<svg xmlns="http://www.w3.org/2000/svg" xmlns:xlink="http://www.w3.org/1999/xlink" version="1.1" width="24" height="24" viewBox="0 0 640 640" xml:space="preserve">
<desc>Created with Fabric.js 4.6.0</desc>
<defs>
</defs>
<g transform="matrix(1.17 0 0 1.17 320 320)" id="FrnnW-c00QfM4RbLRwwXq"  >
<g style="" vector-effect="non-scaling-stroke"   >
		<g transform="matrix(1 0 0 1 -171.5 -170.5)" id="oCrWRHfvBQ4qiLyPSoVX3"  >
<path style="stroke: none; stroke-width: 1; stroke-dasharray: none; stroke-linecap: butt; stroke-dashoffset: 0; stroke-linejoin: miter; stroke-miterlimit: 4; fill: rgb(0,0,0); fill-rule: nonzero; opacity: 1;" vector-effect="non-scaling-stroke"  transform=" translate(-84.5, -85.5)" d="M 60 150.5 C 60 161.546 68.95400000000001 170.5 80 170.5 C 91.04599999999999 170.5 100 161.546 100 150.5 L 100 100.5 L 149 100.5 C 160.046 100.5 169 91.54599999999999 169 80.5 C 169 69.45400000000001 160.046 60.5 149 60.5 L 100 60.5 L 100 20.5 C 100 9.454 91.04599999999999 0.5 80 0.5 C 68.95400000000001 0.5 60 9.454 60 20.5 L 60 60.5 L 20 60.5 C 8.954 60.5 0 69.45400000000001 0 80.5 C 0 91.54599999999999 8.954 100.5 20 100.5 L 60 100.5 L 60 150.5 z" stroke-linecap="round" />
</g>
		<g transform="matrix(1 0 0 1 176 0.5)" id="l6stm808TJmSyPKA9KR8A"  >
<path style="stroke: none; stroke-width: 1; stroke-dasharray: none; stroke-linecap: butt; stroke-dashoffset: 0; stroke-linejoin: miter; stroke-miterlimit: 4; fill: rgb(0,0,0); fill-rule: nonzero; opacity: 1;" vector-effect="non-scaling-stroke"  transform=" translate(-432, -256.5)" d="M 432 210.5 C 420.954 210.5 412 219.454 412 230.5 L 412 282.5 C 412 293.546 420.954 302.5 432 302.5 C 443.046 302.5 452 293.546 452 282.5 L 452 230.5 C 452 219.454 443.046 210.5 432 210.5 z" stroke-linecap="round" />
</g>
		<g transform="matrix(1 0 0 1 141 -140.5)" id="XtBYufmVnAMZjXfGF616d"  >
<path style="stroke: none; stroke-width: 1; stroke-dasharray: none; stroke-linecap: butt; stroke-dashoffset: 0; stroke-linejoin: miter; stroke-miterlimit: 4; fill: rgb(0,0,0); fill-rule: nonzero; opacity: 1;" vector-effect="non-scaling-stroke"  transform=" translate(-397, -115.5)" d="M 362 100.5 L 372 100.5 C 394.056 100.5 412 118.444 412 140.5 L 412 150.5 C 412 161.546 420.954 170.5 432 170.5 C 443.046 170.5 452 161.546 452 150.5 L 452 140.5 C 452 96.388 416.112 60.5 372 60.5 L 362 60.5 C 350.954 60.5 342 69.45400000000001 342 80.5 C 342 91.54599999999999 350.954 100.5 362 100.5 z" stroke-linecap="round" />
</g>
		<g transform="matrix(1 0 0 1 -176 0.5)" id="aa-wIoc5JucyWkqqhrsUB"  >
<path style="stroke: none; stroke-width: 1; stroke-dasharray: none; stroke-linecap: butt; stroke-dashoffset: 0; stroke-linejoin: miter; stroke-miterlimit: 4; fill: rgb(0,0,0); fill-rule: nonzero; opacity: 1;" vector-effect="non-scaling-stroke"  transform=" translate(-80, -256.5)" d="M 80 210.5 C 68.95400000000001 210.5 60 219.454 60 230.5 L 60 282.5 C 60 293.546 68.95400000000001 302.5 80 302.5 C 91.04599999999999 302.5 100 293.546 100 282.5 L 100 230.5 C 100 219.454 91.046 210.5 80 210.5 z" stroke-linecap="round" />
</g>
		<g transform="matrix(1 0 0 1 -141 141)" id="Axa6SM3L-P3QvkNaY7zOq"  >
<path style="stroke: none; stroke-width: 1; stroke-dasharray: none; stroke-linecap: butt; stroke-dashoffset: 0; stroke-linejoin: miter; stroke-miterlimit: 4; fill: rgb(0,0,0); fill-rule: nonzero; opacity: 1;" vector-effect="non-scaling-stroke"  transform=" translate(-115, -397)" d="M 150 411.5 L 140 411.5 C 117.944 411.5 100 393.556 100 371.5 L 100 362.5 C 100 351.454 91.04599999999999 342.5 80 342.5 C 68.95400000000001 342.5 60 351.454 60 362.5 L 60 371.5 C 60 415.612 95.888 451.5 140 451.5 L 150 451.5 C 161.046 451.5 170 442.546 170 431.5 C 170 420.454 161.046 411.5 150 411.5 z" stroke-linecap="round" />
</g>
		<g transform="matrix(1 0 0 1 171 171)" id="-EVEoYsmnmbGvXvjcsgHM"  >
<path style="stroke: none; stroke-width: 1; stroke-dasharray: none; stroke-linecap: butt; stroke-dashoffset: 0; stroke-linejoin: miter; stroke-miterlimit: 4; fill: rgb(0,0,0); fill-rule: nonzero; opacity: 1;" vector-effect="non-scaling-stroke"  transform=" translate(-427, -427)" d="M 492 411.5 L 452 411.5 L 452 362.5 C 452 351.454 443.046 342.5 432 342.5 C 420.954 342.5 412 351.454 412 362.5 L 412 411.5 L 362 411.5 C 350.954 411.5 342 420.454 342 431.5 C 342 442.546 350.954 451.5 362 451.5 L 412 451.5 L 412 491.5 C 412 502.546 420.954 511.5 432 511.5 C 443.046 511.5 452 502.546 452 491.5 L 452 451.5 L 492 451.5 C 503.046 451.5 512 442.546 512 431.5 C 512 420.454 503.046 411.5 492 411.5 z" stroke-linecap="round" />
</g>
		<g transform="matrix(1 0 0 1 0 -175.5)" id="nQ85eEVU9J0VvFiEtswqn"  >
<path style="stroke: none; stroke-width: 1; stroke-dasharray: none; stroke-linecap: butt; stroke-dashoffset: 0; stroke-linejoin: miter; stroke-miterlimit: 4; fill: rgb(0,0,0); fill-rule: nonzero; opacity: 1;" vector-effect="non-scaling-stroke"  transform=" translate(-256, -80.5)" d="M 282 60.5 L 230 60.5 C 218.954 60.5 210 69.45400000000001 210 80.5 C 210 91.54599999999999 218.954 100.5 230 100.5 L 282 100.5 C 293.046 100.5 302 91.54599999999999 302 80.5 C 302 69.45400000000001 293.046 60.5 282 60.5 z" stroke-linecap="round" />
</g>
		<g transform="matrix(1 0 0 1 0 175.5)" id="DWw68h16o-eHXspqiQs-M"  >
<path style="stroke: none; stroke-width: 1; stroke-dasharray: none; stroke-linecap: butt; stroke-dashoffset: 0; stroke-linejoin: miter; stroke-miterlimit: 4; fill: rgb(0,0,0); fill-rule: nonzero; opacity: 1;" vector-effect="non-scaling-stroke"  transform=" translate(-256, -431.5)" d="M 282 411.5 L 230 411.5 C 218.954 411.5 210 420.454 210 431.5 C 210 442.546 218.954 451.5 230 451.5 L 282 451.5 C 293.046 451.5 302 442.546 302 431.5 C 302 420.454 293.046 411.5 282 411.5 z" stroke-linecap="round" />
</g>
</g>
</g>
</svg>
